!!!!SEGMENT: pl-kozmzk--mzk-m-159--015_walczynski-franciszek--praeludia-organi-op-5-andante.krn
!!!cenid: 18xx:2758
!!!COM: Walczyński, Franciszek
!!!COM-rismID: pe30021989
!!!CDT: ~1852-1937
!!!CNT: Polish
!!!GTL: Praeludia organi op. 5
!!!OTL: 15. Andante
!!!PDT: 1894
!!!AGN: Secular; Prelude
!!!SMS-siglum: PL-KOZmzk
!!!SMS-shelfmark: mzk/m/159
!!!SMS-shelfwork: 015 G
!!!SMS-variant:
!!!SMS-altvar:
!!!NIFC-rismSourceID: 1001116712
!!!NIFC-islandoraID: pl-kozmzk:2265
!!!URL-pdf-islandora: https://repozytorium.nifc.pl/islandora/object/pl-kozmzk%3A2265/datastream/PDF/view
!!!URL-scan: https://polish.musicsources.pl/pl/lokalizacje/galeria/druki-muzyczne/7406 @EN{Scan on Polish Music Sources Website} @PL{Skany w portalu Dziedzictwo Muzyki Polskiej w otwartym dostępie}
!!!ONB-nifc: UWAGA: numeracja plików zgodna z numeracją źrodłową
!!!OMD: 15. Andante.
!!!AIN: 2 organ
!!!key:
**kern	**kern	**dynam
*part2	*part1	*part1
*staff2	*staff1	*
*Iorgan	*Iorgan	*
*I"[Organo]	*I"[Organo]	*
*clefF4	*clefG2	*
*k[]	*k[]	*
*a:	*a:	*
*M4/4	*M4/4	*
*met(c)	*met(c)	*
=1	=1	=1
*^	*^	*
1rBB	1r	(4a/	1r	p <
.	.	4b/	.	.
.	.	4cc/	.	.
.	.	4ff/	.	[
=2	=2	=2	=2	=2
1rBB	1r	4ee/	1r	>
.	.	4dd/	.	.
.	.	4cc/	.	.
.	.	4b/)	.	]]
=3	=3	=3	=3	=3
1rBB	1r	(4a/	(4A\	.
.	.	4g#X/	4B\	.
.	.	4a/	4c\	.
.	.	4dd/	4f\	<
=4	=4	=4	=4	=4
1rBB	1r	4cc/	4e\	.
.	.	4b/	4d\	[
.	.	4a/	4c\	>
.	.	4g#X/)	4B\)	]]
=5	=5	=5	=5	=5
1rBB	1r	(4a/	(4c\	.
.	.	4cc/	4A\	.
.	.	4b/	4d\	.
.	.	[4a/	4d#X\	.
=6	=6	=6	=6	=6
1rBB	1r	4a/]	2e\	<
.	.	4g#X/	.	.
.	.	4a/	4f#X\	.
.	.	4b/)	4g#\)	[
=7	=7	=7	=7	=7
*	*	*	*	*^
(4A/	1r	(4cc/	2.a\	p	fp
4B/	.	4dd/	.	.	.
4c/	.	4ee/	.	.	.
4f/	.	4dd/	[4a\	.	.
*	*	*	*	*v	*v
!!LO:LB:g=original
=8	=8	=8	=8	=8
4e/	1r	4cc/	4a\]	.
4d/	.	4ff/	(2a\	.
4c/	.	4.ee^/	.	.
4B/)	.	.	4g#X\	.
.	.	8dd/	.	.
=9	=9	=9	=9	=9
[1A/	1r	4ccZ/)	4aZ\)	>
.	.	(4dd/	(4f\	.
.	.	4cc/	4e\	.
.	.	4b/)	4d\)	]]
=10	=10	=10	=10	=10
!LO:TX:b:i:t=Ped.	!	!	!	!LO:DY:b=2:rj
1A/_	(<4AA\	(2.a/	(4c\	p
.	4BB\	.	4d\	.
.	4C\	.	4e\	.
.	4F\	[4a/	4d\	.
=11	=11	=11	=11	=11
4A/]	4E\	4a/]	4c\	.
(4B/	4D\	4g#X/	4f\	.
4A/	4C\	4a/	[2e\)	.
4G#X/	4BB\)	4b/	.	.
=12	=12	=12	=12	=12
4AZ/)	[1AA\	4ccZ/	4e\]	.
(4f/	.	4dd/	(2a\	.
4e/	.	4cc/	.	.
4d/	.	4b/	4g#X\	.
=13	=13	=13	=13	=13
4cZ/)	1AA\_	[1a/	4aZ\)	.
(4d/	.	.	(4f\	.
4c/	.	.	4e\	.
4B/	.	.	4d\	.
=14	=14	=14	=14	=14
4AZ/)	1AA\_	1a/_	4cZ\)	.
!LO:TX:a:i:t=rit.	!	!	!	!
(4F/	.	.	(4d\	.
4E/	.	.	4c\	.
4D/	.	.	4B\	.
=15	=15	=15	=15	=15
!	!	!	!	!LO:DY:rj
1C/);<	1AA\]	1a/;])	1A\)	pp
*v	*v	*	*	*
*	*v	*v	*
==	==	==
*-	*-	*-
!!!system-decoration: {(s1,s2)}
!!!RDF**kern: Z = caesura
!!!EED: Andrzej Borzym
!!!EEV: 2021-08-08
!!!RDF**kern: > = above
!!!RDF**kern: < = below
!!!ENC: Krzysztof Stępień
!!!END: 2021-07-26
!!!YEC: Copyright 2022 Narodowy Instytut Fryderyka Chopina (https://polishscores.org)
!!!YEM: Licence CC BY 4.0 (https://creativecommons.org/licenses/by/4.0)
